lib/brands/logos/contentful.svg

<svg xmlns="http://www.w3.org/2000/svg" fill="none" aria-hidden="true" viewBox="0 0 225 53"><g id="Contentful"><g id="Group"><path id="Vector" fill="#FFDA00" d="M19.6964 35.0881C18.5785 33.96 17.6942 32.6224 17.094 31.1519C16.4938 29.6815 16.1897 28.1071 16.1989 26.5189C16.1948 24.9307 16.5074 23.3577 17.1184 21.8918C17.7294 20.4259 18.6265 19.0965 19.7573 17.9814C20.2417 17.5508 20.6331 17.026 20.9075 16.4389C21.182 15.8518 21.3338 15.2149 21.3535 14.5671C21.3732 13.9194 21.2606 13.2744 21.0224 12.6717C20.7842 12.069 20.4255 11.5212 19.9682 11.062C19.5109 10.6027 18.9647 10.2417 18.3631 10.0008C17.7614 9.76004 17.1169 9.64457 16.4691 9.66151C15.8212 9.67845 15.1837 9.82744 14.5954 10.0994C14.0071 10.3713 13.4806 10.7604 13.0479 11.2429C8.98426 15.2826 6.6916 20.7711 6.67423 26.501C6.65687 32.231 8.91622 37.7332 12.9553 41.7974C13.3866 42.2793 13.9114 42.6683 14.4979 42.9407C15.0843 43.213 15.7201 43.3632 16.3665 43.3818C17.0128 43.4005 17.6562 43.2873 18.2574 43.0492C18.8586 42.8111 19.405 42.4531 19.8633 41.9969C20.3216 41.5408 20.6822 40.9961 20.9232 40.396C21.1641 39.7959 21.2803 39.1531 21.2647 38.5067C21.2491 37.8602 21.102 37.2237 20.8323 36.636C20.5627 36.0483 20.1762 35.5216 19.6964 35.0881V35.0881Z"/><path id="Vector_2" fill="#67B3FF" d="M19.7573 17.9815C22.0362 15.7255 25.1165 14.465 28.3232 14.4764C31.5299 14.4878 34.6012 15.7702 36.864 18.0423C37.2937 18.5292 37.8185 18.9231 38.406 19.1998C38.9936 19.4764 39.6315 19.6299 40.2806 19.651C40.9296 19.672 41.5762 19.56 42.1804 19.3219C42.7846 19.0838 43.3337 18.7247 43.794 18.2666C44.2543 17.8085 44.616 17.261 44.8569 16.658C45.0978 16.0549 45.2129 15.4089 45.1949 14.7597C45.177 14.1106 45.0265 13.4719 44.7526 12.8831C44.4787 12.2942 44.0873 11.7676 43.6024 11.3356C41.6098 9.31733 39.2382 7.71256 36.6236 6.61348C34.009 5.5144 31.2031 4.94267 28.3669 4.93112C25.5307 4.91956 22.7202 5.46842 20.0968 6.54615C17.4733 7.62389 15.0887 9.20928 13.0797 11.2113C12.5935 11.6396 12.1999 12.1626 11.9229 12.7484C11.6459 13.3341 11.4914 13.9702 11.4687 14.6177C11.446 15.2652 11.5557 15.9105 11.7911 16.5142C12.0264 17.1178 12.3825 17.6671 12.8375 18.1284C13.2924 18.5897 13.8368 18.9533 14.4371 19.1969C15.0375 19.4406 15.6812 19.5592 16.329 19.5454C16.9768 19.5317 17.6149 19.3859 18.2044 19.1169C18.7939 18.848 19.3223 18.4617 19.7573 17.9815V17.9815Z"/><path id="Vector_3" fill="#EB5A68" d="M36.8349 35.1489C35.7072 36.2691 34.3696 37.1557 32.8987 37.7582C31.4278 38.3606 29.8525 38.667 28.263 38.6597C26.674 38.662 25.1004 38.3474 23.6344 37.7341C22.1685 37.1208 20.8396 36.2213 19.7256 35.0881C19.295 34.6037 18.7701 34.2123 18.1831 33.9378C17.596 33.6634 16.9591 33.5116 16.3113 33.4919C15.6635 33.4721 15.0185 33.5848 14.4158 33.823C13.8131 34.0612 13.2654 34.4199 12.8062 34.8772C12.3469 35.3344 11.9858 35.8806 11.745 36.4823C11.5042 37.084 11.3887 37.7284 11.4057 38.3763C11.4226 39.0241 11.5716 39.6617 11.8435 40.25C12.1155 40.8382 12.5046 41.3648 12.9871 41.7974C14.9831 43.8156 17.3578 45.42 19.9751 46.5186C22.5923 47.6173 25.4006 48.1887 28.2391 48.2C31.0776 48.2113 33.8904 47.6623 36.5163 46.5845C39.1422 45.5067 41.5296 43.9213 43.5416 41.9191C43.9862 41.4788 44.3396 40.9552 44.5818 40.3782C44.824 39.8012 44.9501 39.1822 44.9531 38.5565C44.956 37.9308 44.8357 37.3106 44.599 36.7314C44.3622 36.1521 44.0137 35.6252 43.5734 35.1807C43.133 34.7361 42.6094 34.3827 42.0324 34.1405C41.4555 33.8983 40.8364 33.7722 40.2107 33.7692C39.585 33.7663 38.9648 33.8866 38.3856 34.1233C37.8064 34.3601 37.2795 34.7086 36.8349 35.1489V35.1489Z"/><path id="Vector_4" fill="#47A1FF" d="M19.7573 17.9814C19.0898 18.6481 18.2394 19.1015 17.3138 19.2841C16.3883 19.4668 15.4294 19.3704 14.5587 19.0072C13.688 18.6441 12.9448 18.0305 12.4234 17.2443C11.9019 16.4581 11.6257 15.5348 11.6298 14.5914C11.6339 13.648 11.9181 12.7271 12.4463 11.9455C12.9746 11.1639 13.7231 10.5568 14.5969 10.2012C15.4707 9.84558 16.4304 9.75753 17.3543 9.94818C18.2783 10.1388 19.1247 10.5996 19.7864 11.2721C20.6679 12.1679 21.1595 13.3759 21.154 14.6327C21.1486 15.8895 20.6465 17.0932 19.7573 17.9814Z"/><path id="Vector_5" fill="#D5465F" d="M19.6647 41.7978C18.997 42.4642 18.1464 42.9173 17.2207 43.0995C16.2951 43.2818 15.3362 43.185 14.4657 42.8215C13.5952 42.458 12.8522 41.8442 12.3311 41.0578C11.8099 40.2714 11.5341 39.3479 11.5386 38.4046C11.543 37.4612 11.8276 36.5404 12.3561 35.759C12.8847 34.9776 13.6334 34.3708 14.5074 34.0155C15.3813 33.6603 16.3411 33.5726 17.2649 33.7636C18.1888 33.9546 19.0351 34.4157 19.6964 35.0884C20.5776 35.9846 21.0687 37.1928 21.0628 38.4496C21.0568 39.7064 20.5543 40.9099 19.6647 41.7978V41.7978Z"/><path id="Vector_6" fill="#29303A" d="M64.794 31.1857C66.1671 30.1486 66.3497 30.728 67.5085 31.8867C68.0879 32.4661 69.6726 33.4741 68.6355 34.326C66.4714 36.0933 64.5189 36.887 61.7568 36.887C55.5052 36.8579 51.0843 32.191 51.4388 26.0002C51.5896 23.2276 52.6876 20.6031 54.8544 18.8041C56.8359 17.1267 59.3043 16.3965 61.8971 16.4574C63.1678 16.4536 64.4267 16.7018 65.601 17.1876C66.3963 17.4747 67.1457 17.8758 67.8259 18.3781C69.199 19.4364 68.5588 20.0554 67.4899 21.1216C67.2465 21.365 67.0031 21.6111 66.7888 21.8545C66.2412 22.4021 65.8735 22.799 65.1433 22.2804C63.7411 21.3042 61.9685 20.7856 60.2938 21.2222C54.8967 22.5926 55.1401 32.1989 61.7595 32.2307C62.8568 32.2162 63.9205 31.8499 64.794 31.1857V31.1857ZM214.82 37.0061C214.604 37.0071 214.389 36.9653 214.189 36.883C213.989 36.8007 213.807 36.6796 213.654 36.5266C213.5 36.3736 213.379 36.1918 213.296 35.9917C213.214 35.7915 213.171 35.577 213.172 35.3605L213.265 14.0763C213.264 13.8598 213.306 13.6452 213.388 13.4449C213.47 13.2446 213.591 13.0626 213.744 12.9094C213.897 12.7562 214.079 12.6348 214.279 12.5521C214.479 12.4695 214.694 12.4274 214.91 12.4281H216.68C216.897 12.4274 217.112 12.4696 217.312 12.5524C217.512 12.6352 217.694 12.7568 217.847 12.9103C218 13.0639 218.121 13.2462 218.204 13.4467C218.286 13.6473 218.327 13.8622 218.326 14.0789L218.233 35.3631C218.234 35.5795 218.192 35.794 218.11 35.9941C218.028 36.1942 217.907 36.3761 217.754 36.5291C217.601 36.6821 217.419 36.8033 217.219 36.8856C217.019 36.9679 216.804 37.0098 216.588 37.0087L214.82 37.0061ZM205.561 34.5377C203.64 36.3367 201.809 37.2812 199.095 37.2812C193.608 37.2495 190.983 32.7069 190.983 27.614L191.015 18.9549C191.014 18.7385 191.056 18.5241 191.139 18.3241C191.222 18.1241 191.343 17.9424 191.496 17.7897C191.65 17.6369 191.832 17.516 192.032 17.434C192.232 17.352 192.447 17.3105 192.663 17.3119H194.433C194.649 17.3109 194.864 17.3527 195.064 17.435C195.264 17.5174 195.446 17.6385 195.599 17.7915C195.752 17.9446 195.873 18.1264 195.956 18.3265C196.038 18.5266 196.08 18.7411 196.079 18.9575L196.05 27.6167C196.05 30.4528 197.573 32.6778 200.563 32.6778C203.553 32.6778 205.381 30.1777 205.41 27.3865V24.2938C205.386 24.1736 205.376 24.0511 205.381 23.9287L205.41 19.0183C205.409 18.802 205.451 18.5875 205.533 18.3874C205.615 18.1872 205.736 18.0054 205.89 17.8524C206.043 17.6994 206.224 17.5782 206.424 17.4959C206.625 17.4136 206.839 17.3717 207.055 17.3728H208.802C209.018 17.3717 209.232 17.4136 209.433 17.4959C209.633 17.5782 209.815 17.6994 209.968 17.8524C210.121 18.0054 210.242 18.1872 210.324 18.3874C210.406 18.5875 210.448 18.802 210.447 19.0183L210.389 35.3631C210.385 35.7956 210.209 36.2087 209.901 36.5118C209.592 36.8149 209.176 36.9831 208.743 36.9796H207.249C206.824 36.9664 206.421 36.7918 206.12 36.4915C205.82 36.1911 205.645 35.7876 205.632 35.3631L205.561 34.5377ZM184.509 17.3728H187.925C188.141 17.3758 188.355 17.4218 188.554 17.5079C188.753 17.5941 188.932 17.7187 189.083 17.8746C189.233 18.0306 189.351 18.2147 189.429 18.4165C189.508 18.6182 189.546 18.8336 189.541 19.0501V20.1771C189.538 20.6116 189.364 21.0274 189.057 21.3351C188.751 21.6428 188.335 21.8179 187.901 21.8227H184.478L184.417 35.2705C184.418 35.487 184.376 35.7016 184.294 35.9019C184.211 36.1022 184.09 36.2842 183.937 36.4374C183.784 36.5906 183.602 36.7121 183.402 36.7947C183.202 36.8773 182.988 36.9195 182.771 36.9188H181.004C180.787 36.9195 180.573 36.8773 180.372 36.7947C180.172 36.7121 179.99 36.5908 179.837 36.4376C179.684 36.2844 179.562 36.1024 179.48 35.9021C179.397 35.7018 179.355 35.4872 179.356 35.2705L179.416 16.6717C179.416 12.6159 181.734 9.41202 185.882 9.04693C186.004 9.04693 186.094 9.01782 186.216 9.01782C186.46 9.00195 186.705 9.00195 186.949 9.01782H188.536C188.752 9.02092 188.966 9.06677 189.164 9.15275C189.363 9.23872 189.542 9.36312 189.693 9.51878C189.843 9.67444 189.961 9.85828 190.04 10.0597C190.119 10.2612 190.157 10.4762 190.152 10.6925V11.7296C190.15 12.1654 189.976 12.5827 189.668 12.8911C189.36 13.1995 188.943 13.3744 188.507 13.3778H187.226C185.274 13.3778 184.451 14.87 184.419 16.7008L184.509 17.3728ZM172.252 17.3119H175.996C176.428 17.3161 176.841 17.4917 177.144 17.8003C177.447 18.1088 177.616 18.525 177.612 18.9575V20.0845C177.608 20.517 177.432 20.9301 177.124 21.2332C176.815 21.5363 176.399 21.7046 175.967 21.701H172.22L172.191 29.929C172.191 31.5164 172.953 32.4291 174.538 32.4291H175.3C175.733 32.434 176.146 32.6102 176.449 32.9192C176.752 33.2281 176.92 33.6446 176.916 34.0773V35.2203C176.911 35.6525 176.736 36.0652 176.427 36.3682C176.119 36.6711 175.703 36.8396 175.271 36.8367H173.837C173.572 36.842 173.307 36.8314 173.043 36.805C168.987 36.5404 167.188 33.9107 167.188 29.9448C167.22 24.6086 167.22 19.3041 167.249 13.9678C167.251 13.7535 167.295 13.5416 167.379 13.3443C167.463 13.1471 167.585 12.9683 167.738 12.8182C167.892 12.6681 168.073 12.5496 168.271 12.4695C168.47 12.3894 168.683 12.3492 168.897 12.3513H170.636C171.068 12.3555 171.481 12.5312 171.784 12.8397C172.087 13.1482 172.256 13.5644 172.252 13.9969V17.3119ZM118.016 17.0976H121.76C122.192 17.1018 122.606 17.2775 122.909 17.586C123.212 17.8945 123.38 18.3107 123.376 18.7432V19.8755C123.372 20.3078 123.196 20.7205 122.887 21.0234C122.579 21.3264 122.163 21.4948 121.731 21.492H117.974V29.7226C117.974 31.31 118.736 32.2227 120.321 32.2227H121.085C121.299 32.2248 121.511 32.269 121.708 32.3529C121.905 32.4367 122.083 32.5585 122.233 32.7113C122.383 32.8641 122.501 33.0449 122.581 33.2435C122.661 33.442 122.701 33.6543 122.699 33.8683V34.9954C122.695 35.4279 122.519 35.841 122.211 36.1441C121.902 36.4471 121.486 36.6154 121.054 36.6119H119.927C115.503 36.5828 112.942 34.6911 112.942 29.7332C112.974 24.3969 112.974 19.0898 113.003 13.7535C113.008 13.3208 113.184 12.9077 113.493 12.6047C113.802 12.3017 114.218 12.1335 114.651 12.137H116.389C116.822 12.1419 117.235 12.3182 117.537 12.6273C117.84 12.9363 118.007 13.3528 118.003 13.7853L118.016 17.0976ZM96.002 19.4152C97.8011 17.7379 99.7535 16.6717 102.283 16.6717C107.772 16.7008 110.609 21.1693 110.577 26.3362L110.548 34.9954C110.548 35.212 110.506 35.4267 110.424 35.627C110.341 35.8272 110.22 36.0092 110.067 36.1624C109.913 36.3156 109.731 36.437 109.531 36.5196C109.331 36.6022 109.116 36.6443 108.9 36.6436H107.132C106.916 36.6443 106.701 36.6022 106.501 36.5196C106.3 36.437 106.118 36.3156 105.965 36.1624C105.812 36.0092 105.691 35.8272 105.608 35.627C105.525 35.4267 105.483 35.212 105.484 34.9954L105.516 26.397C105.516 23.5609 103.992 21.3359 101.002 21.3359C98.0127 21.3359 96.1846 23.807 96.1555 26.6113L96.1237 34.9954C96.1195 35.4279 95.9439 35.841 95.6354 36.1441C95.3268 36.4471 94.9106 36.6154 94.4781 36.6119H92.7399C92.3075 36.6077 91.8943 36.432 91.5913 36.1235C91.2882 35.815 91.1199 35.3988 91.1235 34.9663C91.1526 29.7517 91.1526 24.5081 91.1843 19.2935V18.5924C91.1857 18.1604 91.3583 17.7466 91.6643 17.4416C91.9703 17.1366 92.3847 16.9653 92.8167 16.9653H94.3115C94.7362 16.978 95.14 17.1523 95.4405 17.4528C95.741 17.7532 95.9153 18.1571 95.9279 18.5818L96.002 19.4152ZM150.341 19.6268C152.14 17.9522 154.09 16.8833 156.622 16.8833C162.111 16.9151 164.945 21.3968 164.916 26.5505L164.884 35.2203C164.885 35.4368 164.843 35.6514 164.761 35.8516C164.679 36.0519 164.557 36.2339 164.404 36.3871C164.251 36.5404 164.07 36.6618 163.87 36.7444C163.669 36.827 163.455 36.8692 163.238 36.8685H161.471C161.254 36.8692 161.04 36.827 160.839 36.7445C160.639 36.6619 160.457 36.5405 160.304 36.3873C160.151 36.2341 160.029 36.0521 159.947 35.8518C159.864 35.6515 159.822 35.4369 159.823 35.2203L159.855 26.6219C159.855 23.7858 158.328 21.5608 155.341 21.5608C152.354 21.5608 150.523 24.0292 150.492 26.8362L150.449 35.2203C150.444 35.653 150.268 36.0661 149.959 36.3691C149.65 36.6721 149.234 36.8403 148.801 36.8367H147.063C146.631 36.8319 146.218 36.6559 145.916 36.3474C145.613 36.039 145.446 35.6232 145.449 35.1912L145.51 18.8146C145.511 18.5994 145.554 18.3864 145.637 18.1879C145.721 17.9894 145.842 17.8094 145.995 17.6582C146.149 17.5069 146.33 17.3875 146.53 17.3067C146.729 17.226 146.943 17.1855 147.158 17.1876H148.653C149.079 17.2016 149.484 17.3783 149.784 17.6814C150.084 17.9845 150.257 18.3909 150.267 18.8173L150.341 19.6268ZM79.4006 16.5182C73.4532 16.4865 69.2466 20.7856 69.2149 26.7013C69.1858 32.6778 73.3315 36.9188 79.3398 36.9479C85.348 36.977 89.5546 32.7704 89.5837 26.7542C89.6154 20.8782 85.3163 16.5473 79.4006 16.5182ZM128.768 28.7464C129.194 31.4899 131.819 32.6169 134.38 32.6487C135.664 32.6375 136.931 32.3572 138.099 31.8259C138.287 31.7493 138.47 31.661 138.647 31.5613C139.258 31.2253 139.806 31.0137 140.356 31.5613C140.66 31.8656 140.936 32.1725 141.24 32.445C141.527 32.7192 141.793 33.0155 142.034 33.3313C142.856 34.3657 142.277 34.6118 141.332 35.252C139.319 36.5933 136.697 37.2627 134.287 37.2627C127.824 37.2336 123.554 33.2942 123.554 26.7754C123.585 20.6137 127.853 16.5288 134.012 16.5579C140.295 16.5896 143.862 20.2803 143.954 26.5611C143.983 28.2675 144.044 28.8178 142.277 28.8178L128.768 28.7464ZM79.4006 21.1216C82.4802 21.1216 84.5226 23.807 84.5226 26.7648C84.5226 29.8443 82.6018 32.3206 79.3689 32.3206C76.1359 32.3206 74.2469 29.8205 74.2469 26.741C74.2469 23.6614 76.1994 21.1216 79.4006 21.1216V21.1216ZM128.903 24.5081L139.028 24.5372C138.66 22.0053 136.557 20.9999 134.15 20.9999C131.742 20.9999 129.652 22.1296 128.903 24.5081Z"/></g></g></svg>

<svg xmlns="http://www.w3.org/2000/svg" fill="none" aria-hidden="true" viewBox="0 0 225 53"><path fill="#FFDA00" d="M19.696 35.088a12.074 12.074 0 0 1-3.497-8.57 11.947 11.947 0 0 1 3.558-8.537 4.761 4.761 0 1 0-6.71-6.738 21.607 21.607 0 0 0-.092 30.554 4.762 4.762 0 1 0 6.741-6.709Z"/><path fill="#67B3FF" d="M19.757 17.982a12.114 12.114 0 0 1 17.107.06 4.764 4.764 0 0 0 7.993-1.384 4.762 4.762 0 0 0-1.255-5.322 21.533 21.533 0 0 0-30.522-.125 4.76 4.76 0 0 0 1.357 7.986 4.76 4.76 0 0 0 5.32-1.215Z"/><path fill="#EB5A68" d="M36.835 35.149a12.085 12.085 0 0 1-8.572 3.51 11.948 11.948 0 0 1-8.537-3.57 4.764 4.764 0 0 0-7.981 1.393 4.761 4.761 0 0 0 1.242 5.315 21.57 21.57 0 0 0 30.555.122 4.763 4.763 0 0 0-1.51-7.778 4.765 4.765 0 0 0-5.197 1.008Z"/><path fill="#47A1FF" d="M19.757 17.981a4.762 4.762 0 1 1-6.73-6.738 4.762 4.762 0 0 1 6.73 6.738Z"/><path fill="#D5465F" d="M19.665 41.798a4.761 4.761 0 1 1-6.727-6.74 4.761 4.761 0 0 1 6.727 6.74Z"/><path fill="#29303A" d="M64.794 31.186c1.373-1.037 1.556-.458 2.715.7.579.58 2.164 1.588 1.126 2.44-2.164 1.767-4.116 2.561-6.878 2.561-6.252-.03-10.673-4.696-10.318-10.887.15-2.772 1.249-5.397 3.415-7.196 1.982-1.677 4.45-2.407 7.043-2.347a9.614 9.614 0 0 1 3.704.73 8.743 8.743 0 0 1 2.225 1.191c1.373 1.058.733 1.677-.336 2.744-.243.243-.487.49-.701.733-.548.547-.915.944-1.646.425-1.402-.976-3.175-1.494-4.85-1.058-5.396 1.37-5.153 10.977 1.467 11.009a5.125 5.125 0 0 0 3.034-1.045Zm150.026 5.82a1.64 1.64 0 0 1-1.648-1.645l.093-21.285a1.647 1.647 0 0 1 .479-1.167 1.644 1.644 0 0 1 1.166-.48h1.77a1.639 1.639 0 0 1 1.646 1.65l-.093 21.284a1.645 1.645 0 0 1-.479 1.166 1.639 1.639 0 0 1-1.166.48l-1.768-.003Zm-9.259-2.468c-1.921 1.799-3.752 2.743-6.466 2.743-5.487-.032-8.112-4.574-8.112-9.667l.032-8.66a1.626 1.626 0 0 1 .481-1.164 1.65 1.65 0 0 1 1.167-.478h1.77a1.64 1.64 0 0 1 1.646 1.645l-.029 8.66c0 2.836 1.523 5.06 4.513 5.06s4.818-2.5 4.847-5.29v-3.093a1.543 1.543 0 0 1-.029-.365l.029-4.91a1.644 1.644 0 0 1 .48-1.167 1.635 1.635 0 0 1 1.165-.48h1.747a1.642 1.642 0 0 1 1.522 1.015c.082.2.124.415.123.631l-.058 16.345a1.633 1.633 0 0 1-1.646 1.617h-1.494a1.671 1.671 0 0 1-1.617-1.617l-.071-.825Zm-21.052-17.165h3.416a1.643 1.643 0 0 1 1.616 1.677v1.127a1.656 1.656 0 0 1-1.64 1.646h-3.423l-.061 13.447a1.647 1.647 0 0 1-.48 1.167 1.643 1.643 0 0 1-1.166.482h-1.767a1.646 1.646 0 0 1-1.524-1.017 1.63 1.63 0 0 1-.124-.632l.06-18.598c0-4.056 2.318-7.26 6.466-7.625.122 0 .212-.03.334-.03.244-.015.489-.015.733 0h1.587a1.637 1.637 0 0 1 1.616 1.676v1.037a1.654 1.654 0 0 1-1.645 1.648h-1.281c-1.952 0-2.775 1.492-2.807 3.323l.09.672Zm-12.257-.061h3.744a1.631 1.631 0 0 1 1.616 1.645v1.127a1.633 1.633 0 0 1-1.645 1.617h-3.747l-.029 8.228c0 1.587.762 2.5 2.347 2.5h.762a1.635 1.635 0 0 1 1.616 1.648v1.143a1.633 1.633 0 0 1-1.645 1.617h-1.434a6.643 6.643 0 0 1-.794-.032c-4.056-.265-5.855-2.894-5.855-6.86.032-5.336.032-10.64.061-15.977a1.63 1.63 0 0 1 1.648-1.617h1.739a1.632 1.632 0 0 1 1.616 1.646v3.315Zm-54.236-.214h3.744a1.634 1.634 0 0 1 1.616 1.645v1.133a1.634 1.634 0 0 1-1.645 1.617h-3.757v8.23c0 1.587.762 2.5 2.347 2.5h.764a1.632 1.632 0 0 1 1.614 1.645v1.127a1.633 1.633 0 0 1-1.645 1.617h-1.127c-4.424-.03-6.985-1.92-6.985-6.879.032-5.336.032-10.643.061-15.98a1.635 1.635 0 0 1 1.648-1.616h1.738a1.63 1.63 0 0 1 1.614 1.648l.013 3.313Zm-22.014 2.317c1.8-1.677 3.752-2.743 6.281-2.743 5.489.029 8.326 4.497 8.294 9.664l-.029 8.66a1.653 1.653 0 0 1-1.017 1.524c-.2.082-.415.124-.631.124h-1.768a1.641 1.641 0 0 1-1.648-1.649l.032-8.598c0-2.836-1.524-5.061-4.514-5.061s-4.817 2.471-4.846 5.275l-.032 8.384a1.632 1.632 0 0 1-1.646 1.617H92.74a1.632 1.632 0 0 1-1.616-1.646c.029-5.214.029-10.458.06-15.672v-.702a1.632 1.632 0 0 1 1.633-1.627h1.495a1.667 1.667 0 0 1 1.616 1.617l.074.833Zm54.339.212c1.799-1.675 3.749-2.744 6.281-2.744 5.489.032 8.323 4.514 8.294 9.668l-.032 8.67a1.646 1.646 0 0 1-1.014 1.523 1.646 1.646 0 0 1-.632.124h-1.767a1.648 1.648 0 0 1-1.167-.48 1.636 1.636 0 0 1-.481-1.168l.032-8.598c0-2.836-1.527-5.061-4.514-5.061s-4.818 2.468-4.849 5.275l-.043 8.384a1.635 1.635 0 0 1-1.648 1.617h-1.738a1.631 1.631 0 0 1-1.614-1.646l.061-16.376a1.644 1.644 0 0 1 .485-1.157 1.638 1.638 0 0 1 1.163-.47h1.495a1.669 1.669 0 0 1 1.614 1.63l.074.809Zm-70.94-3.109c-5.948-.032-10.154 4.268-10.186 10.183-.03 5.977 4.117 10.218 10.125 10.247 6.008.029 10.215-4.178 10.244-10.194.031-5.876-4.268-10.207-10.183-10.236Zm49.367 12.228c.426 2.744 3.051 3.87 5.612 3.903a9.175 9.175 0 0 0 3.719-.823 4.83 4.83 0 0 0 .548-.265c.611-.336 1.159-.547 1.709 0 .304.305.58.611.884.884.287.274.553.57.794.886.822 1.035.243 1.28-.702 1.921-2.013 1.341-4.635 2.01-7.045 2.01-6.463-.028-10.733-3.968-10.733-10.487.031-6.161 4.299-10.246 10.458-10.217 6.283.032 9.85 3.722 9.942 10.003.029 1.706.09 2.257-1.677 2.257l-13.509-.072Zm-49.367-7.624c3.08 0 5.122 2.685 5.122 5.643 0 3.08-1.921 5.556-5.154 5.556-3.233 0-5.122-2.5-5.122-5.58s1.952-5.62 5.154-5.62Zm49.502 3.386 10.125.03C138.66 22.004 136.557 21 134.15 21c-2.408 0-4.498 1.13-5.247 3.508Z"/></svg>
